icons/remote-control-2-fill.svg

<svg xmlns="http://www.w3.org/2000/svg" width="24" height="24" fill="none"><g clip-path="url(#a)"><g><path fill="#121212" d="M18 2C18.2652 2 18.5196 2.10536 18.7071 2.29289C18.8946 2.48043 19 2.73478 19 3V21C19 21.2652 18.8946 21.5196 18.7071 21.7071C18.5196 21.8946 18.2652 22 18 22H6C5.73478 22 5.48043 21.8946 5.29289 21.7071C5.10536 21.5196 5 21.2652 5 21V3C5 2.73478 5.10536 2.48043 5.29289 2.29289C5.48043 2.10536 5.73478 2 6 2H18ZM15 15H13V17H15V15ZM11 15H9V17H11V15ZM13 6H11V8H9V10H10.999L11 12H13L12.999 10H15V8H13V6Z"/></g></g><defs><clipPath id="a"><rect width="24" height="24" fill="white"/></clipPath></defs></svg>

<svg width="24" height="24" fill="none" xmlns="http://www.w3.org/2000/svg"><g clip-path="url(#a)"><path d="M18 2a1 1 0 0 1 1 1v18a1 1 0 0 1-1 1H6a1 1 0 0 1-1-1V3a1 1 0 0 1 1-1h12Zm-3 13h-2v2h2v-2Zm-4 0H9v2h2v-2Zm2-9h-2v2H9v2h1.999L11 12h2l-.001-2H15V8h-2V6Z" /></g><defs><clipPath id="a"><path fill="#fff" d="M0 0h24v24H0z"/></clipPath></defs></svg>
